X:74
T: Dribbles Of Brandy
R: jig 32
M:6/8
L:1/8
Q:1/8=140
K:Emin
"Em"EGE G2A|"Em" B2e dBG| "D"A2B cBA|"Bm" BAG FED|
"Em"EGE G2A| "Em"B2e dBG| "D"A2B cBA| "Em"BGE E3:|
"Em"e2f g2e|"D" fag fed|"C" e2f g2e|"Bm" fed "Em"e3|
"Em"e2f g2e|"D" fag fed| "Em"e2B cBA| "Em"BGE E3:|

